!!!OTL: 413b. Nachtigall als Botin.
!!!ODT: 1860
!!!ARE: Europa, Mitteleuropa, Deutschland
!!!SCT: E0413B
!!!TXL: @@DE
!!!YEM: Copyright 1995, estate of Helmut Schaffrath.
**kern	**text
*ICvox	*
*M2/4	*
*k[]	*
*a:	*
!LO:TX:a:t=Vorsänger.	!
!LO:TX:a:t=Langsam.	!
!LO:TX:a:t=Mel. 1860	!
{16eL	Auf
16fJ	dem
=1	=1
8g	Kirch-
8g	-hof
8a	ſteht
8a	ein
=2	=2
8g	Ro-
16aL	-ſen-
16bJ	.
8cc	-baum,
8r}	.
=3	=3
!LO:TX:a:t=Alle.	!
{8.e	Kla-
16f	-re
8g	Stein'
16a	wie
16f	die
=4	=4
8e	Rammſtein.
8c	.
8r}	.
!LO:TX:a:t=Vorsänger.	!
{8e	Da-
=5	=5
8e	-rauf
8e	ſetʒt
8f#	ſich
8g#	Frau
=6	=6
8.a	Nach-
16b	-ti-
8cc}	-gall.
!LO:TX:a:t=Alle.	!
{16cc	Von
16dd	der
=7	=7
8ee	Jungheit
16cc	.
16dd	ʒum
16ee	Din-
16cc	-ge-
16ee	-din-
16cc	-ge-
=8	=8
4.dd}	-ding,
{16a	von
16b/	der
=9	=9
8cc	Jung-
16cc	-heit
16cc	ein
8b	an-
8cc	-der
=10	=10
4.a}	Lieb.
==	==
!!!Ag: Liebes - Lied
!!!ONB: ESAC (Essen Associative Code) Database: ERK1
!!!AMT: simple duple
!!!AIN: vox
!!!EED: Helmut Schaffrath
!!!EEV: 1.0
!!!GTL: Liebeslieder [Alte (aus dem 13. bis 17. Jahrh.) mit ihrem jungen Nachwuchs]
!!!URL-scan: https://rosdok.uni-rostock.de/mcrviewer/recordIdentifier/rosdok_ppn745177662/iview2/phys_0233.iview2?x=-778.7160746633431&y=103.87937743775547&scale=0.3980252647138593&rotation=0&layout=singlePageLayout
!!!ENC: Anna Maria Matuszewska
!!!EEV: 2024/09/12
*-	*-
